X: 30671
T: HUMPHREY'S GAVOTT
C:
%R: govotte, reel
B: Elias Howe "The Musician's Companion" Part 3 1844 p.67 #1
S: http://imslp.org/wiki/The_Musician's_Companion_(Howe,_Elias)
Z: 2015 John Chambers <jc:trillian.mit.edu>
N: Deleted the extra bar line in bar 20, the last bar of strain 2.
N: It's not clear where the final repeat symbol goes back to.
M: 4/4
L: 1/8
K: D
% - - - - - - - - - - - - - - - - - - - - - - - - -
A2 |\
d2 fd ec Ac | BdgB BAGF | GBeG FAdF | Ecdf ecA2 |\
d2 fd ec Ac | BdgB BAGF | GBeG FAdF | E2c2 d2z2 :|
Bfed fedc | BcdB BAGF | Bcde fa (3(gfe) | d2c2 B2z2 |\
b2b2 b2b2 | dBdB g4 | a2a2 a2a2 | cAcA f4 |
d2 fd ec Ac | BdgB BAGF | GBeG FAdF | Ec df e^g a2 |]\
d2 fd ec Ac | BdgB BAGF | GBdG FAdE | E2c2 d2z2 :|
% - - - - - - - - - - - - - - - - - - - - - - - - -
